icons/midnadark/mimetypes/16/application-x-rpm.svg

<?xml version="1.0" encoding="UTF-8" standalone="no"?>
<!-- Created with Inkscape (http://www.inkscape.org/) -->

<svg
   xmlns:osb="http://www.openswatchbook.org/uri/2009/osb"
   xmlns:dc="http://purl.org/dc/elements/1.1/"
   xmlns:cc="http://creativecommons.org/ns#"
   xmlns:rdf="http://www.w3.org/1999/02/22-rdf-syntax-ns#"
   xmlns:svg="http://www.w3.org/2000/svg"
   xmlns="http://www.w3.org/2000/svg"
   xmlns:sodipodi="http://sodipodi.sourceforge.net/DTD/sodipodi-0.dtd"
   xmlns:inkscape="http://www.inkscape.org/namespaces/inkscape"
   width="16"
   height="16"
   id="svg2"
   version="1.1"
   inkscape:version="0.91 r13725"
   viewBox="0 0 16 16"
   sodipodi:docname="application-x-rpm.svg">
  <defs
     id="defs4">
    <linearGradient
       osb:paint="gradient"
       id="linearGradient4207">
      <stop
         id="stop3371"
         offset="0"
         style="stop-color:#3498db;stop-opacity:1;" />
      <stop
         id="stop3373"
         offset="1"
         style="stop-color:#3498db;stop-opacity:0;" />
    </linearGradient>
    <linearGradient
       id="linearGradient4422-35">
      <stop
         id="stop4424-8"
         offset="0"
         style="stop-color:#ff1526;stop-opacity:1" />
      <stop
         id="stop4426-2"
         offset="1"
         style="stop-color:#ff461c;stop-opacity:1" />
    </linearGradient>
  </defs>
  <sodipodi:namedview
     id="base"
     pagecolor="#9c9c9c"
     bordercolor="#666666"
     borderopacity="1.0"
     inkscape:pageopacity="0"
     inkscape:pageshadow="2"
     inkscape:zoom="11.2"
     inkscape:cx="-10.484313"
     inkscape:cy="8.7244419"
     inkscape:document-units="px"
     inkscape:current-layer="layer1-1"
     showgrid="false"
     inkscape:showpageshadow="false"
     borderlayer="true"
     inkscape:window-width="1366"
     inkscape:window-height="687"
     inkscape:window-x="0"
     inkscape:window-y="0"
     inkscape:window-maximized="1"
     units="px"
     inkscape:snap-bbox="true"
     inkscape:object-nodes="true"
     showguides="false">
    <inkscape:grid
       type="xygrid"
       id="grid4101" />
    <sodipodi:guide
       position="2,14.000017"
       orientation="12,0"
       id="guide4071" />
    <sodipodi:guide
       position="2,2.0000174"
       orientation="0,12"
       id="guide4073" />
    <sodipodi:guide
       position="14,2.0000174"
       orientation="-12,0"
       id="guide4075" />
    <sodipodi:guide
       position="14,14.000017"
       orientation="0,-12"
       id="guide4077" />
  </sodipodi:namedview>
  <metadata
     id="metadata7">
    <rdf:RDF>
      <cc:Work
         rdf:about="">
        <dc:format>image/svg+xml</dc:format>
        <dc:type
           rdf:resource="http://purl.org/dc/dcmitype/StillImage" />
        <dc:title />
      </cc:Work>
    </rdf:RDF>
  </metadata>
  <g
     inkscape:label="Capa 1"
     inkscape:groupmode="layer"
     id="layer1"
     transform="translate(0,-1036.3622)">
    <g
       transform="translate(-412.88298,512.00351)"
       id="layer1-4"
       inkscape:label="Capa 1">
      <g
         style="fill:#ffffff;fill-opacity:1"
         inkscape:label="Capa 1"
         id="layer1-7"
         transform="translate(392.57143,-514.5642)" />
      <g
         transform="translate(341.79698,500.25245)"
         id="g4240">
        <rect
           style="opacity:1;fill:#ffffff;fill-opacity:0.40983605;stroke:none"
           id="rect4236-8"
           width="44"
           height="1"
           x="10"
           y="3" />
        <g
           transform="translate(-392.98822,-511.27795)"
           id="layer1-1"
           inkscape:label="Capa 1"
           inkscape:transform-center-x="5.4653607"
           inkscape:transform-center-y="-9.4924686">
          <g
             transform="matrix(1.130438,0,0,1.130438,19.475006,-56.997021)"
             id="layer1-89"
             inkscape:label="Capa 1"
             style="fill:#ffffff;fill-opacity:1">
            <g
               style="fill:#ffffff;fill-opacity:1"
               inkscape:label="Capa 1"
               id="layer1-7-1"
               transform="translate(392.57143,-514.5642)" />
            <g
               transform="translate(341.79698,500.25245)"
               id="g4240-8"
               style="fill:#ffffff;fill-opacity:1">
              <g
                 style="stroke:#0b3969;stroke-opacity:1;fill:#ffffff;fill-opacity:1"
                 transform="translate(-392.98822,-511.27795)"
                 id="layer1-1-7"
                 inkscape:label="Capa 1"
                 inkscape:transform-center-x="5.4653607"
                 inkscape:transform-center-y="-9.4924686">
                <g
                   style="stroke:#0b3969;stroke-opacity:1;fill:#ffffff;fill-opacity:1"
                   transform="translate(0.41988239,0.03484499)"
                   inkscape:label="Capa 1"
                   id="layer1-3" />
                <g
                   style="stroke:#0b3969;stroke-opacity:1;fill:#ffffff;fill-opacity:1"
                   inkscape:label="Capa 1"
                   id="layer1-5"
                   transform="translate(22.989671,8.9703136)">
                  <g
                     transform="translate(392.57143,-514.5642)"
                     id="layer1-7-4"
                     inkscape:label="Capa 1"
                     style="fill:#ffffff;fill-opacity:1;stroke:#0b3969;stroke-opacity:1" />
                </g>
                <g
                   style="stroke:#0b3969;stroke-opacity:1;fill:#ffffff;fill-opacity:1"
                   id="g4186"
                   transform="translate(432.8094,518.46393)">
                  <g
                     style="stroke:#0b3969;stroke-opacity:1;fill:#ffffff;fill-opacity:1"
                     inkscape:transform-center-y="-9.4924686"
                     inkscape:transform-center-x="5.4653607"
                     inkscape:label="Capa 1"
                     id="layer1-4-99"
                     transform="translate(-509.70748,-515.64674)">
                    <g
                       style="stroke:#0b3969;stroke-opacity:1;fill:#ffffff;fill-opacity:1"
                       id="layer1-3-65"
                       inkscape:label="Capa 1"
                       transform="translate(0.41988239,0.03484499)" />
                  </g>
                </g>
              </g>
              <g
                 inkscape:transform-center-y="37.795228"
                 inkscape:transform-center-x="80.74435"
                 transform="matrix(0.02507228,0,0,0.02507228,52.284676,25.06455)"
                 id="g4218"
                 style="fill:#ffffff;fill-opacity:1">
                <path
                   style="fill:#ffffff;fill-opacity:1"
                   d="M 8,0.00390625 C 3.5813499,0.00390625 0,3.5835168 0,8 0,8.8933736 0.14708535,9.7542838 0.41796875,10.556641 l 0.55664063,0 c 0.49300782,0 0.95128302,-0.119317 1.33593752,-0.320313 0.096976,-0.04876 0.2071971,-0.08008 0.3242187,-0.08008 0.2454204,0 0.4554855,0.09699 0.5898438,0.316406 0.1148546,0.19937 0.2232777,0.316959 0.3554687,0.400391 0.1143131,0.07368 0.2695213,0.13334 0.4921875,0.123047 0.1056447,-0.0049 0.2665498,-0.03119 0.3066406,-0.140625 C 4.4244152,10.729777 4.3667522,10.63565 4.2128906,10.572264 3.9972675,10.481791 3.9385315,10.348236 3.8242188,10.144531 3.7088222,9.940285 3.4589289,9.8327896 3.4199219,9.4492188 3.3814564,9.0710655 3.6785636,8.5963525 4.2636719,8.7480469 4.6867917,8.8580257 4.9601061,9.3792688 5.0625,9.5585938 c 0.053093,0.093725 0.2431643,0.2042287 0.3964844,0.064453 0.1527782,-0.1408594 0.2928069,-0.1422156 0.4082031,0.037109 0.09806,0.1522364 0.8185957,1.1112562 1.5976563,1.1367192 0.7915215,0.02546 1.2134883,-0.178476 1.5585937,-0.166016 0.241628,0.0092 0.3579432,0.130673 0.4960937,0.152344 0.2432534,0.03901 0.4173722,-0.181513 0.6855468,-0.167969 0.216707,0.0098 0.452601,0.15625 0.695313,0.15625 0.242711,0 0.753136,-0.294642 0.746093,-0.173828 -0.01246,0.213998 -0.174753,0.59313 -0.214843,0.767578 -0.02817,0.120814 -0.0055,0.413853 -0.07813,0.648438 -0.06501,0.238919 -0.287734,0.540812 -0.345704,0.626953 -0.195577,0.293638 -0.337683,0.382271 -0.498046,0.689453 -0.178242,0.344564 -0.471897,0.665184 -0.5488285,0.767578 -0.09806,0.131108 0.5538215,-0.0047 0.7851565,-0.224609 0.196661,-0.185826 0.54092,-0.747457 1.085937,-0.867188 0.367318,-0.08126 0.440909,-0.222949 0.396485,-0.353515 -0.0076,-0.01463 -0.0098,-0.0329 -0.0098,-0.05078 0,-0.04984 0.02806,-0.0941 0.07031,-0.115234 0.379779,-0.157654 0.894792,-0.255859 1.460938,-0.255859 0.330478,0 0.658531,0.04567 0.966797,0.117187 C 15.528905,11.095091 16,9.6025464 16,8 16,3.5835168 12.417567,0.00390625 8,0.00390625 Z M 9.2011719,1.6542969 c 0.5493769,-0.020977 1.0817671,0.1349216 1.4121091,0.4746093 0.455626,0.4686284 1.084085,1.9161385 1.384766,2.9980469 0.15332,0.5493517 0.111545,0.8122209 0.03516,0.9980469 -0.05526,0.1262318 -0.08773,0.2074875 -0.277344,0.5292969 -0.03305,0.057427 -0.0067,0.1174601 0.06641,0.080078 0.500592,-0.2567975 0.612308,-0.5958622 0.691406,-0.8613281 1.359293,0.3060983 2.166095,1.0144846 1.992187,1.9707031 C 14.12283,9.9485139 10.676458,10.656224 7.3261719,9.6425781 4.13354,8.6760662 1.3297786,6.7499219 1.6542969,5.6230469 1.8428317,4.9658836 2.885431,4.6858681 4.2734375,4.8359375 4.063232,5.2650169 4.0772573,5.7707612 4.9960938,6.3320312 6.1197181,6.9696911 8.02015,7.5145725 8.5332031,7.4609375 8.7244468,7.4419757 8.8949382,7.3453234 8.7226562,7.2304688 8.5503743,7.1156141 8.3986272,6.8858242 8.3027344,6.484375 8.2485578,6.2606254 8.1883949,5.9498708 6.9824219,5.7207031 4.3933182,5.2271537 4.4919703,4.4957132 4.5683594,4.0742188 c 0,-10e-8 0.2297375,-1.032959 0.3261718,-1.3964844 C 4.9898822,2.3142088 5.2372805,1.4780712 6.9042969,1.8535156 7.8675581,2.0702224 8.3868779,1.8020956 8.6523438,1.734375 8.8327521,1.688054 9.0180462,1.661289 9.2011719,1.654297 Z m 0.1523437,0.3710937 c -0.086141,0 -0.1779726,0.00392 -0.2695312,0.013672 -0.3055564,0.030339 -0.5726282,0.1069044 -0.7519532,0.2011719 -0.00867,0.00379 -0.013672,0.011733 -0.013672,0.021484 0,0.013002 0.011305,0.025391 0.025391,0.025391 l 0.00391,0 c 0.051468,-0.00813 0.1054378,-0.016067 0.1601563,-0.021484 0.4962582,-0.049843 0.9130066,0.032441 0.9335937,0.1835938 0.01517,0.1143128 -0.2004303,0.2349136 -0.5195312,0.3085937 -0.017336,0.00433 -0.029297,0.019445 -0.029297,0.035156 0,0.016253 0.010549,0.029411 0.027344,0.033203 C 9.0537424,2.865179 9.2097652,2.888244 9.3750041,2.892578 9.8885991,2.903413 10.309909,2.7199295 10.31641,2.4804687 10.32241,2.2410077 9.9114947,2.0373094 9.3984416,2.0253905 l -0.044922,0 z M 5.5507812,2.9863281 c -0.081942,0.00332 -0.1701186,0.053697 -0.2324218,0.1972657 -0.1262318,0.2898453 0.1073703,0.6019456 0.3007812,0.6425781 0,0 0.3206582,0.5965273 0.5644532,0.3359375 C 6.3564176,3.9784503 6.4532406,3.8791373 7.3769531,3.8125 7.8168678,3.7799941 7.8631535,3.6781241 7.8496094,3.5703125 7.8349818,3.4429972 7.5693178,3.2949219 7.1738281,3.2949219 c -0.3906139,0 -0.671351,0.052092 -0.9140625,0.058594 C 6.0170538,3.3600167 5.831365,3.1811607 5.7441406,3.0722656 5.708384,3.02757 5.6327234,2.9830098 5.5507812,2.9863281 Z"
                   transform="matrix(29.931757,0,0,29.931757,11.557516,19.038496)"
                   id="path6"
                   inkscape:connector-curvature="0" />
                <path
                   d="m 303.74449,366.65358 c 1.23242,1.18377 3.35672,5.22156 0.76216,10.36204 -1.45945,2.72429 -3.0324,4.62157 -5.82156,6.85938 -3.38915,2.70808 -9.95664,5.82156 -18.97276,0.0811 -4.86481,-3.06483 -5.17291,-4.10265 -11.87013,-3.22699 -4.78373,0.61621 -6.68101,-4.23238 -4.97832,-8.23774 1.73511,-4.00536 8.78908,-7.24857 17.59439,-2.09187 3.97293,2.31889 10.13502,7.24857 15.51874,2.87024 2.25403,-1.76755 3.59996,-2.96754 6.69723,-6.5675 0.14594,-0.14594 0.34053,-0.22702 0.56756,-0.22702 0.19459,0 0.37297,0.0649 0.50269,0.17838"
                   style="fill:#ffffff;fill-opacity:1"
                   id="path8"
                   inkscape:connector-curvature="0" />
              </g>
            </g>
            <g
               transform="translate(-25.207646,1.422878)"
               inkscape:label="Capa 1"
               id="layer1-25"
               style="fill:#ffffff;fill-opacity:1">
              <g
                 transform="translate(392.57143,-514.5642)"
                 id="layer1-7-0"
                 inkscape:label="Capa 1"
                 style="fill:#ffffff;fill-opacity:1" />
              <g
                 id="g4240-0"
                 transform="translate(341.79698,500.25245)"
                 style="fill:#ffffff;fill-opacity:1">
                <g
                   id="g14208"
                   transform="translate(-13.545278,-3.3479685)"
                   style="fill:#ffffff;fill-opacity:1">
                  <g
                     inkscape:transform-center-y="-9.4924686"
                     inkscape:transform-center-x="5.4653607"
                     inkscape:label="Capa 1"
                     id="layer1-19"
                     transform="translate(-392.98822,-511.27795)"
                     style="fill:#ffffff;fill-opacity:1">
                    <g
                       id="layer1-3-4"
                       inkscape:label="Capa 1"
                       transform="translate(0.41988239,0.03484499)"
                       style="fill:#ffffff;fill-opacity:1" />
                  </g>
                </g>
              </g>
            </g>
            <g
               id="g4186-0"
               transform="translate(386.69357,508.47423)"
               style="fill:#ffffff;fill-opacity:1">
              <g
                 inkscape:transform-center-y="-9.4924686"
                 inkscape:transform-center-x="5.4653607"
                 inkscape:label="Capa 1"
                 id="layer1-4-9"
                 transform="translate(-509.70748,-515.64674)"
                 style="fill:#ffffff;fill-opacity:1">
                <g
                   id="layer1-3-65-5"
                   inkscape:label="Capa 1"
                   transform="translate(0.41988239,0.03484499)"
                   style="fill:#ffffff;fill-opacity:1" />
              </g>
              <g
                 id="g4205"
                 transform="translate(0,0.26550102)"
                 style="fill:#ffffff;fill-opacity:1" />
            </g>
          </g>
        </g>
      </g>
    </g>
  </g>
</svg>

<svg xmlns="http://www.w3.org/2000/svg" viewBox="0 0 16 16"><g transform="translate(-71.09-24.1)"><g transform="matrix(.02834 0 0 .02834 71.976 25.569)" fill="#fff"><path d="m8 .004c-4.419 0-8 3.58-8 7.996 0 .893.147 1.754.418 2.557h.557c.493 0 .951-.119 1.336-.32.097-.049.207-.08.324-.08.245 0 .455.097.59.316.115.199.223.317.355.4.114.074.27.133.492.123.106-.005.267-.031.307-.141.046-.126-.012-.22-.166-.283-.216-.09-.274-.224-.389-.428-.115-.204-.365-.312-.404-.695-.038-.378.259-.853.844-.701.423.11.696.631.799.811.053.094.243.204.396.064.153-.141.293-.142.408.037.098.152.819 1.111 1.598 1.137.792.025 1.213-.178 1.559-.166.242.009.358.131.496.152.243.039.417-.182.686-.168.217.001.453.156.695.156.243 0 .753-.295.746-.174-.012.214-.175.593-.215.768-.028.121-.005.414-.078.648-.065.239-.288.541-.346.627-.196.294-.338.382-.498.689-.178.345-.472.665-.549.768-.098.131.554-.005.785-.225.197-.186.541-.747 1.086-.867.367-.081.441-.223.396-.354-.008-.015-.001-.033-.001-.051 0-.05.028-.094.07-.115.38-.158.895-.256 1.461-.256.33 0 .659.046.967.117.812-1.253 1.283-2.745 1.283-4.348 0-4.416-3.582-7.996-8-7.996m1.201 1.65c.549-.021 1.082.135 1.412.475.456.469 1.084 1.916 1.385 2.998.153.549.112.812.035.998-.055.126-.088.207-.277.529-.033.057-.007.117.066.08.501-.257.612-.596.691-.861 1.359.306 2.166 1.014 1.992 1.971-.383 2.105-3.829 2.812-7.18 1.799-3.193-.967-5.996-2.893-5.672-4.02.189-.657 1.231-.937 2.619-.787-.21.429-.196.935.723 1.496 1.124.638 3.02 1.183 3.537 1.129.191-.019.362-.116.189-.23-.172-.115-.324-.345-.42-.746-.054-.224-.114-.535-1.32-.764-2.589-.494-2.49-1.225-2.414-1.646 0 0 .23-1.033.326-1.396.095-.364.343-1.2 2.01-.824.963.217 1.483-.051 1.748-.119.18-.046.366-.073.549-.08m.152.371c-.086 0-.178.004-.27.014-.306.03-.573.107-.752.201-.009.004-.014.012-.014.021 0 .013.011.025.025.025h.004c.051-.008.105-.016.16-.021.496-.05.913.032.934.184.015.114-.2.235-.52.309-.017.004-.029.019-.029.035 0 .016.011.029.027.033.134.039.29.062.455.066.514.011.935-.173.941-.412.006-.239-.405-.443-.918-.455h-.045zm-3.803.961c-.082.003-.17.054-.232.197-.126.29.107.602.301.643 0 0 .321.597.564.336.173-.184.27-.283 1.193-.35.44-.033.486-.134.473-.242-.015-.127-.28-.275-.676-.275-.391 0-.671.052-.914.059-.243.007-.428-.172-.516-.281-.036-.045-.111-.089-.193-.086" transform="matrix(29.93176 0 0 29.93176 11.558 19.04)"/><path d="m303.74 366.65c1.232 1.184 3.357 5.222.762 10.362-1.459 2.724-3.03 4.622-5.822 6.859-3.389 2.708-9.957 5.822-18.973.081-4.865-3.065-5.173-4.103-11.87-3.227-4.784.616-6.681-4.232-4.978-8.238 1.735-4.01 8.789-7.249 17.594-2.092 3.973 2.319 10.135 7.249 15.519 2.87 2.254-1.768 3.6-2.968 6.697-6.567.146-.146.341-.227.568-.227.195 0 .373.065.503.178"/></g></g></svg>
